icons/car.svg

<?xml version="1.0" standalone="no"?><!-- Generator: Gravit.io --><svg xmlns="http://www.w3.org/2000/svg" xmlns:xlink="http://www.w3.org/1999/xlink" width="96" height="96"><path d=" M 60.69740365869 60 C 61.29311347747328 58.335519687574916 62.2516711598214 56.80507106018672 63.5 55.5 C 65.8 53.3 68.8 52 72 52 C 75.2 52 78.2 53.3 80.5 55.5 Q 81.7483288401786 56.80507106018672 83.30259634131 60 L 84 60 L 84 52 C 84 51.1 83.5 50.2 82.6 49.8 L 73.8 45.4 C 71 44 68.5 42.2 66.3 40 L 56 29.700000000000003 C 54.9 28.6 53.5 28 52 28 L 28 28 C 26.5 28 25.1 28.6 24 29.700000000000003 L 13.7 40 C 12.6 41.1 12 42.5 12 44 L 12 60 L 12.69740365869 60 C 13.293113477473277 58.335519687574916 14.251671159821404 56.80507106018672 15.5 55.5 C 17.8 53.3 20.8 52 24 52 C 27.2 52 30.2 53.3 32.5 55.5 C 33.7483288401786 56.80507106018672 34.70688652252672 58.335519687574916 35.30259634131 60 L 60.69740365869 60 Z  M 60.69740365869 68 C 61.29311347747328 69.66448031242508 62.2516711598214 71.19492893981328 63.5 72.5 C 65.8 74.7 68.8 76 72 76 C 75.2 76 78.2 74.7 80.5 72.5 C 81.7483288401786 71.19492893981328 82.70688652252673 69.66448031242508 83.30259634131 68 L 84 68 C 86.1 68 88.2 67.2 89.7 65.7 C 91.2 64.2 92 62.099999999999994 92 60 L 92 52 C 92 48 89.8 44.4 86.2 42.6 L 77.4 38.2 C 75.4 37.2 73.6 35.9 72 34.3 L 61.7 24 C 59.1 21.4 55.6 20 52 20 L 28 20 C 24.4 20 20.9 21.4 18.3 24 L 8 34.3 C 5.4 36.9 4 40.4 4 44 L 4 60 C 4 62.099999999999994 4.8 64.2 6.3 65.7 C 7.8 67.2 9.9 68 12 68 L 12.69740365869 68 C 13.293113477473277 69.66448031242508 14.251671159821404 71.19492893981328 15.5 72.5 C 17.8 74.7 20.8 76 24 76 C 27.2 76 30.2 74.7 32.5 72.5 C 33.7483288401786 71.19492893981328 34.70688652252672 69.66448031242508 35.30259634131 68 L 60.69740365869 68 Z  M 20 64 C 20 65.1 20.4 66.1 21.2 66.8 C 21.9 67.6 22.9 68 24 68 C 25.1 68 26.1 67.6 26.8 66.8 C 27.6 66.1 28 65.1 28 64 C 28 62.900000000000006 27.6 61.900000000000006 26.8 61.2 C 26.1 60.400000000000006 25.1 60 24 60 C 22.9 60 21.9 60.400000000000006 21.2 61.2 C 20.4 61.900000000000006 20 62.900000000000006 20 64 L 20 64 Z  M 68 64 C 68 62.900000000000006 68.4 61.900000000000006 69.2 61.2 C 69.9 60.400000000000006 70.9 60 72 60 C 73.1 60 74.1 60.400000000000006 74.8 61.2 C 75.6 61.900000000000006 76 62.900000000000006 76 64 C 76 65.1 75.6 66.1 74.8 66.8 C 74.1 67.6 73.1 68 72 68 C 70.9 68 69.9 67.6 69.2 66.8 C 68.4 66.1 68 65.1 68 64 L 68 64 Z " fill-rule="evenodd" fill="#454545" stroke="none"/><mask id="_mask_yitjQ324XQL1UjWkfK9nuqkcr7GRv2M4"><path d=" M 60.69740365869 60 C 61.29311347747328 58.335519687574916 62.2516711598214 56.80507106018672 63.5 55.5 C 65.8 53.3 68.8 52 72 52 C 75.2 52 78.2 53.3 80.5 55.5 Q 81.7483288401786 56.80507106018672 83.30259634131 60 L 84 60 L 84 52 C 84 51.1 83.5 50.2 82.6 49.8 L 73.8 45.4 C 71 44 68.5 42.2 66.3 40 L 56 29.700000000000003 C 54.9 28.6 53.5 28 52 28 L 28 28 C 26.5 28 25.1 28.6 24 29.700000000000003 L 13.7 40 C 12.6 41.1 12 42.5 12 44 L 12 60 L 12.69740365869 60 C 13.293113477473277 58.335519687574916 14.251671159821404 56.80507106018672 15.5 55.5 C 17.8 53.3 20.8 52 24 52 C 27.2 52 30.2 53.3 32.5 55.5 C 33.7483288401786 56.80507106018672 34.70688652252672 58.335519687574916 35.30259634131 60 L 60.69740365869 60 Z  M 60.69740365869 68 C 61.29311347747328 69.66448031242508 62.2516711598214 71.19492893981328 63.5 72.5 C 65.8 74.7 68.8 76 72 76 C 75.2 76 78.2 74.7 80.5 72.5 C 81.7483288401786 71.19492893981328 82.70688652252673 69.66448031242508 83.30259634131 68 L 84 68 C 86.1 68 88.2 67.2 89.7 65.7 C 91.2 64.2 92 62.099999999999994 92 60 L 92 52 C 92 48 89.8 44.4 86.2 42.6 L 77.4 38.2 C 75.4 37.2 73.6 35.9 72 34.3 L 61.7 24 C 59.1 21.4 55.6 20 52 20 L 28 20 C 24.4 20 20.9 21.4 18.3 24 L 8 34.3 C 5.4 36.9 4 40.4 4 44 L 4 60 C 4 62.099999999999994 4.8 64.2 6.3 65.7 C 7.8 67.2 9.9 68 12 68 L 12.69740365869 68 C 13.293113477473277 69.66448031242508 14.251671159821404 71.19492893981328 15.5 72.5 C 17.8 74.7 20.8 76 24 76 C 27.2 76 30.2 74.7 32.5 72.5 C 33.7483288401786 71.19492893981328 34.70688652252672 69.66448031242508 35.30259634131 68 L 60.69740365869 68 Z  M 20 64 C 20 65.1 20.4 66.1 21.2 66.8 C 21.9 67.6 22.9 68 24 68 C 25.1 68 26.1 67.6 26.8 66.8 C 27.6 66.1 28 65.1 28 64 C 28 62.900000000000006 27.6 61.900000000000006 26.8 61.2 C 26.1 60.400000000000006 25.1 60 24 60 C 22.9 60 21.9 60.400000000000006 21.2 61.2 C 20.4 61.900000000000006 20 62.900000000000006 20 64 L 20 64 Z  M 68 64 C 68 62.900000000000006 68.4 61.900000000000006 69.2 61.2 C 69.9 60.400000000000006 70.9 60 72 60 C 73.1 60 74.1 60.400000000000006 74.8 61.2 C 75.6 61.900000000000006 76 62.900000000000006 76 64 C 76 65.1 75.6 66.1 74.8 66.8 C 74.1 67.6 73.1 68 72 68 C 70.9 68 69.9 67.6 69.2 66.8 C 68.4 66.1 68 65.1 68 64 L 68 64 Z " fill-rule="evenodd" fill="white" stroke="none"/></mask><path d=" M 60.69740365869 60 C 61.29311347747328 58.335519687574916 62.2516711598214 56.80507106018672 63.5 55.5 C 65.8 53.3 68.8 52 72 52 C 75.2 52 78.2 53.3 80.5 55.5 Q 81.7483288401786 56.80507106018672 83.30259634131 60 L 84 60 L 84 52 C 84 51.1 83.5 50.2 82.6 49.8 L 73.8 45.4 C 71 44 68.5 42.2 66.3 40 L 56 29.700000000000003 C 54.9 28.6 53.5 28 52 28 L 28 28 C 26.5 28 25.1 28.6 24 29.700000000000003 L 13.7 40 C 12.6 41.1 12 42.5 12 44 L 12 60 L 12.69740365869 60 C 13.293113477473277 58.335519687574916 14.251671159821404 56.80507106018672 15.5 55.5 C 17.8 53.3 20.8 52 24 52 C 27.2 52 30.2 53.3 32.5 55.5 C 33.7483288401786 56.80507106018672 34.70688652252672 58.335519687574916 35.30259634131 60 L 60.69740365869 60 Z  M 60.69740365869 68 C 61.29311347747328 69.66448031242508 62.2516711598214 71.19492893981328 63.5 72.5 C 65.8 74.7 68.8 76 72 76 C 75.2 76 78.2 74.7 80.5 72.5 C 81.7483288401786 71.19492893981328 82.70688652252673 69.66448031242508 83.30259634131 68 L 84 68 C 86.1 68 88.2 67.2 89.7 65.7 C 91.2 64.2 92 62.099999999999994 92 60 L 92 52 C 92 48 89.8 44.4 86.2 42.6 L 77.4 38.2 C 75.4 37.2 73.6 35.9 72 34.3 L 61.7 24 C 59.1 21.4 55.6 20 52 20 L 28 20 C 24.4 20 20.9 21.4 18.3 24 L 8 34.3 C 5.4 36.9 4 40.4 4 44 L 4 60 C 4 62.099999999999994 4.8 64.2 6.3 65.7 C 7.8 67.2 9.9 68 12 68 L 12.69740365869 68 C 13.293113477473277 69.66448031242508 14.251671159821404 71.19492893981328 15.5 72.5 C 17.8 74.7 20.8 76 24 76 C 27.2 76 30.2 74.7 32.5 72.5 C 33.7483288401786 71.19492893981328 34.70688652252672 69.66448031242508 35.30259634131 68 L 60.69740365869 68 Z  M 20 64 C 20 65.1 20.4 66.1 21.2 66.8 C 21.9 67.6 22.9 68 24 68 C 25.1 68 26.1 67.6 26.8 66.8 C 27.6 66.1 28 65.1 28 64 C 28 62.900000000000006 27.6 61.900000000000006 26.8 61.2 C 26.1 60.400000000000006 25.1 60 24 60 C 22.9 60 21.9 60.400000000000006 21.2 61.2 C 20.4 61.900000000000006 20 62.900000000000006 20 64 L 20 64 Z  M 68 64 C 68 62.900000000000006 68.4 61.900000000000006 69.2 61.2 C 69.9 60.400000000000006 70.9 60 72 60 C 73.1 60 74.1 60.400000000000006 74.8 61.2 C 75.6 61.900000000000006 76 62.900000000000006 76 64 C 76 65.1 75.6 66.1 74.8 66.8 C 74.1 67.6 73.1 68 72 68 C 70.9 68 69.9 67.6 69.2 66.8 C 68.4 66.1 68 65.1 68 64 L 68 64 Z " fill-rule="evenodd" fill="none" stroke="none" stroke-width="16" mask="url(#_mask_yitjQ324XQL1UjWkfK9nuqkcr7GRv2M4)"/></svg>

<svg xmlns="http://www.w3.org/2000/svg" width="96" height="96"><path d="M60.697 60a12.731 12.731 0 0 1 2.803-4.5c2.3-2.2 5.3-3.5 8.5-3.5s6.2 1.3 8.5 3.5q1.248 1.305 2.803 4.5H84v-8c0-.9-.5-1.8-1.4-2.2l-8.8-4.4C71 44 68.5 42.2 66.3 40L56 29.7c-1.1-1.1-2.5-1.7-4-1.7H28c-1.5 0-2.9.6-4 1.7L13.7 40c-1.1 1.1-1.7 2.5-1.7 4v16h.697a12.731 12.731 0 0 1 2.803-4.5c2.3-2.2 5.3-3.5 8.5-3.5s6.2 1.3 8.5 3.5a12.731 12.731 0 0 1 2.803 4.5h25.394zm0 8a12.731 12.731 0 0 0 2.803 4.5c2.3 2.2 5.3 3.5 8.5 3.5s6.2-1.3 8.5-3.5a12.731 12.731 0 0 0 2.803-4.5H84c2.1 0 4.2-.8 5.7-2.3 1.5-1.5 2.3-3.6 2.3-5.7v-8c0-4-2.2-7.6-5.8-9.4l-8.8-4.4c-2-1-3.8-2.3-5.4-3.9L61.7 24c-2.6-2.6-6.1-4-9.7-4H28c-3.6 0-7.1 1.4-9.7 4L8 34.3c-2.6 2.6-4 6.1-4 9.7v16c0 2.1.8 4.2 2.3 5.7C7.8 67.2 9.9 68 12 68h.697a12.731 12.731 0 0 0 2.803 4.5c2.3 2.2 5.3 3.5 8.5 3.5s6.2-1.3 8.5-3.5a12.731 12.731 0 0 0 2.803-4.5h25.394zM20 64c0 1.1.4 2.1 1.2 2.8.7.8 1.7 1.2 2.8 1.2 1.1 0 2.1-.4 2.8-1.2.8-.7 1.2-1.7 1.2-2.8 0-1.1-.4-2.1-1.2-2.8-.7-.8-1.7-1.2-2.8-1.2-1.1 0-2.1.4-2.8 1.2-.8.7-1.2 1.7-1.2 2.8zm48 0c0-1.1.4-2.1 1.2-2.8.7-.8 1.7-1.2 2.8-1.2 1.1 0 2.1.4 2.8 1.2.8.7 1.2 1.7 1.2 2.8 0 1.1-.4 2.1-1.2 2.8-.7.8-1.7 1.2-2.8 1.2-1.1 0-2.1-.4-2.8-1.2-.8-.7-1.2-1.7-1.2-2.8z" fill-rule="evenodd" fill="#454545"/></svg>
